X:1
T:女儿情
M:4/4
L:1/8
V:1
Q:1/4=80
K:C
|z6G,A,|C3DEB,A,/2B,/2G,|A,6CD|E3GACD/2E/2F|
w: 鸳 鸯|双 栖 蝶 双|飞 满 园|春 色 惹 人|
|E6EG|A3GA2A,E|D3CD2E2|G,3A,B,E2A,|
w: 醉 悄 悄|问 圣 僧 女 儿|美 不 美 女|儿 美 不|
|A,C3-C4|zGGAcB2A/2G/2|A8|-AGGAcB2A/2G/2|
w: 美|说 什 么 王 权 富|贵| 怕 什 么 戒 律 清|
|E6G,A,|C3DEB,A,/2B,/2G,|A,6CD|E3GACD/2E/2F|
w: 规 只 愿|天 长 地|久 与 我|意 中 人 儿 紧 相|
|E6EG|A3GA2A,E|D3CD2E2|G,3A,B,E2A,|
w: 随 爱|恋 伊 爱|恋 伊 愿|今生长相|
|A,C3-C4|
w: 随|